svg/business/currency_dollar_line.svg

<?xml version="1.0" encoding="UTF-8"?>
<svg width="24px" height="24px" viewBox="0 0 24 24" version="1.1" xmlns="http://www.w3.org/2000/svg" xmlns:xlink="http://www.w3.org/1999/xlink">
    <title>currency_dollar_line</title>
    <g id="Icon" stroke="none" stroke-width="1" fill="none" fill-rule="evenodd">
        <g id="Business" transform="translate(-576.000000, 0.000000)" fill-rule="nonzero">
            <g id="currency_dollar_line" transform="translate(576.000000, 0.000000)">
                <rect id="矩形" x="0" y="0" width="24" height="24"></rect>
                <path d="M12,2 C17.5228,2 22,6.47715 22,12 C22,17.5228 17.5228,22 12,22 C6.47715,22 2,17.5228 2,12 C2,6.47715 6.47715,2 12,2 Z M12,4 C7.58172,4 4,7.58172 4,12 C4,16.4183 7.58172,20 12,20 C16.4183,20 20,16.4183 20,12 C20,7.58172 16.4183,4 12,4 Z M12,6 C12.51285,6 12.9355092,6.38604429 12.9932725,6.88337975 L13,7 L13,8 L15,8 C15.5523,8 16,8.44772 16,9 C16,9.51283143 15.613973,9.93550653 15.1166239,9.9932722 L15,10 L10,10 C9.72386,10 9.5,10.2239 9.5,10.5 C9.5,10.7454222 9.67687704,10.9496 9.91012499,10.9919429 L10,11 L14,11 C15.3807,11 16.5,12.1193 16.5,13.5 C16.5,14.825472 15.4684531,15.9100378 14.1643744,15.9946823 L14,16 L13,16 L13,17 C13,17.5523 12.5523,18 12,18 C11.48715,18 11.0644908,17.613973 11.0067275,17.1166239 L11,17 L11,16 L9,16 C8.44772,16 8,15.5523 8,15 C8,14.48715 8.38604429,14.0644908 8.88337975,14.0067275 L9,14 L14,14 C14.2761,14 14.5,13.7761 14.5,13.5 C14.5,13.2545778 14.3230914,13.0504 14.0898645,13.0080571 L14,13 L10,13 C8.61929,13 7.5,11.8807 7.5,10.5 C7.5,9.1745184 8.53153766,8.08996147 9.83562452,8.00531769 L10,8 L11,8 L11,7 C11,6.44772 11.4477,6 12,6 Z" id="形状" fill="#09244B"></path>
            </g>
        </g>
    </g>
</svg>

<svg xmlns="http://www.w3.org/2000/svg" width="24" height="24"><g fill="none" fill-rule="nonzero"><path d="M0 0h24v24H0z"/><path fill="#09244B" d="M12 2c5.523 0 10 4.477 10 10s-4.477 10-10 10S2 17.523 2 12 6.477 2 12 2m0 2a8 8 0 1 0 0 16 8 8 0 0 0 0-16m0 2a1 1 0 0 1 .993.883L13 7v1h2a1 1 0 0 1 .117 1.993L15 10h-5a.5.5 0 0 0-.09.992L10 11h4a2.5 2.5 0 0 1 .164 4.995L14 16h-1v1a1 1 0 0 1-1.993.117L11 17v-1H9a1 1 0 0 1-.117-1.993L9 14h5a.5.5 0 0 0 .09-.992L14 13h-4a2.5 2.5 0 0 1-.164-4.995L10 8h1V7a1 1 0 0 1 1-1"/></g></svg>
